projects/svn/images/icons/small_search.svg

<svg width="12" height="12" viewBox="0 0 12 12" fill="none" xmlns="http://www.w3.org/2000/svg">
<path d="M7.11688 3.02075C8.38608 4.28996 8.38608 6.34774 7.11688 7.61695L8.17754 8.67761C10.0325 6.82262 10.0325 3.81508 8.17754 1.96009L7.11688 3.02075ZM7.11688 7.61695C5.84768 8.88615 3.78989 8.88615 2.52068 7.61695L1.46002 8.67761C3.31501 10.5326 6.32255 10.5326 8.17754 8.67761L7.11688 7.61695ZM2.52068 7.61695C1.25148 6.34774 1.25148 4.28995 2.52068 3.02075L1.46002 1.96009C-0.394967 3.81508 -0.394967 6.82261 1.46002 8.67761L2.52068 7.61695ZM2.52068 3.02075C3.78989 1.75155 5.84767 1.75155 7.11688 3.02075L8.17754 1.96009C6.32255 0.105101 3.31501 0.1051 1.46002 1.96009L2.52068 3.02075ZM7.07731 8.47982L10.5585 11.961L11.6191 10.9003L8.13797 7.41916L7.07731 8.47982Z" fill="white"/>
</svg>

<svg width="12" height="12" fill="none" xmlns="http://www.w3.org/2000/svg"><path d="M7.117 3.02a3.25 3.25 0 010 4.597l1.06 1.06a4.75 4.75 0 000-6.717l-1.06 1.06zm0 4.597a3.25 3.25 0 01-4.596 0L1.46 8.677a4.75 4.75 0 006.718 0l-1.061-1.06zm-4.596 0a3.25 3.25 0 010-4.596L1.46 1.96a4.75 4.75 0 000 6.717l1.06-1.061zm0-4.596a3.25 3.25 0 014.596 0l1.06-1.06a4.75 4.75 0 00-6.717 0l1.06 1.06zM7.077 8.48l3.482 3.481 1.06-1.06-3.481-3.482-1.06 1.06z" fill="#fff"/></svg>
